img/like.svg

<svg width="15" height="15" viewBox="0 0 15 15" fill="none" xmlns="http://www.w3.org/2000/svg">
<g clip-path="url(#clip0_1_34421)">
<path d="M12.8851 4.981H9.79698V2.86306C9.79698 1.84694 9.49398 1.10934 8.8941 0.671674C7.95144 -0.0200214 6.66905 0.368675 6.61396 0.387038C6.39665 0.454372 6.24668 0.659432 6.24668 0.888977V3.44458C6.24668 5.33603 4.02163 5.99406 3.92675 6.01854C3.92063 6.0216 3.91451 6.0216 3.91145 6.02466L3.65742 6.10424C3.36972 5.83185 2.98408 5.66657 2.56172 5.66657H1.59763C0.71618 5.66351 0 6.37969 0 7.26115V12.758C0 13.6394 0.71618 14.3556 1.59763 14.3556H2.56172C2.96878 14.3556 3.34218 14.2026 3.62375 13.9486C4.02775 14.4291 4.63375 14.7382 5.31014 14.7382H11.566C13.0167 14.7382 13.9808 13.9424 14.1492 12.6111L14.9265 7.72942L14.9694 7.46621C14.9878 7.34378 15 7.2183 15 7.09281C14.9969 5.92978 14.0482 4.981 12.8851 4.981ZM3.10957 12.761C3.10957 13.064 2.86472 13.3089 2.56172 13.3089H1.59763C1.29463 13.3089 1.04979 13.064 1.04979 12.761V7.26115C1.04979 6.95815 1.29463 6.7133 1.59763 6.7133H2.56172C2.86472 6.7133 3.10957 6.95815 3.10957 7.26115V12.761ZM13.9319 7.30399L13.1116 12.458C13.1116 12.4642 13.1085 12.4703 13.1085 12.4764C13.0718 12.7763 12.9616 13.6915 11.566 13.6915H5.31014C4.6766 13.6915 4.15936 13.1742 4.15936 12.5407V7.26115C4.15936 7.19075 4.15323 7.12036 4.14405 7.04996L4.22057 7.02548C4.44399 6.96121 7.29647 6.08588 7.29647 3.44152V1.32052C7.59947 1.28992 7.99735 1.31134 8.27586 1.51946C8.58804 1.75207 8.74719 2.20197 8.74719 2.86306V5.50742C8.74719 5.79818 8.98286 6.03385 9.27362 6.03385H12.8851C13.4728 6.03385 13.9472 6.5113 13.9472 7.09587C13.9472 7.16321 13.941 7.2336 13.9319 7.30399Z" fill="#5C0C70"/>
</g>
<defs>
<clipPath id="clip0_1_34421">
<rect width="15" height="15" fill="white"/>
</clipPath>
</defs>
</svg>

<svg width="15" height="15" fill="none" xmlns="http://www.w3.org/2000/svg"><g clip-path="url(#a)"><path d="M12.885 4.981H9.797V2.863c0-1.016-.303-1.754-.903-2.191C7.951-.02 6.67.369 6.614.387a.526.526 0 0 0-.367.502v2.556c0 1.891-2.225 2.55-2.32 2.574-.006.003-.012.003-.016.006l-.254.08a1.588 1.588 0 0 0-1.095-.438h-.964A1.594 1.594 0 0 0 0 7.26v5.497c0 .881.716 1.598 1.598 1.598h.964c.407 0 .78-.153 1.062-.407.404.48 1.01.79 1.686.79h6.256c1.45 0 2.415-.797 2.583-2.128l.778-4.882.042-.263a2.12 2.12 0 0 0-2.084-2.485Zm-9.775 7.78a.547.547 0 0 1-.548.548h-.964a.547.547 0 0 1-.548-.548v-5.5c0-.303.245-.548.548-.548h.964c.303 0 .548.245.548.548v5.5Zm10.822-5.457-.82 5.154c0 .006-.004.012-.004.018-.036.3-.146 1.215-1.542 1.215H5.31c-.633 0-1.15-.517-1.15-1.15V7.26c0-.07-.007-.14-.016-.211l.077-.025c.223-.064 3.075-.94 3.075-3.583V1.32c.303-.031.701-.01.98.198.312.233.471.683.471 1.344v2.644c0 .291.236.527.527.527h3.611c.588 0 1.062.477 1.062 1.062 0 .067-.006.138-.015.208Z" fill="#5C0C70"/></g><defs><clipPath id="a"><path fill="#fff" d="M0 0h15v15H0z"/></clipPath></defs></svg>
